icons/microphone.svg

<svg width="24" height="24" viewBox="0 0 24 24" fill="none" xmlns="http://www.w3.org/2000/svg">
<path fill-rule="evenodd" clip-rule="evenodd" d="M11.21 8.9955C11.533 9.25481 11.5846 9.72687 11.3253 10.0499L5.63697 17.1353C5.62175 17.1587 5.60282 17.2087 5.61131 17.2893C5.61563 17.3304 5.62649 17.369 5.64057 17.4004C5.65494 17.4325 5.66821 17.4475 5.67076 17.45L6.52398 18.3032C6.64504 18.3781 6.79577 18.3915 6.94578 18.3354L13.9709 12.6955C14.2939 12.4362 14.766 12.4878 15.0253 12.8108C15.2846 13.1338 15.233 13.6059 14.91 13.8652L7.74749 19.6153L7.67584 19.6512C7.05895 19.9596 6.24916 19.9744 5.59043 19.4803L5.54779 19.4484L4.6101 18.5107C4.32113 18.2217 4.15976 17.8284 4.11955 17.4464C4.07869 17.0582 4.15602 16.6096 4.44043 16.2303L4.44784 16.2205L10.1556 9.11082C10.4149 8.78782 10.887 8.73619 11.21 8.9955Z" fill="black"/>
<path fill-rule="evenodd" clip-rule="evenodd" d="M14.9405 5.63037C13.0351 5.63037 11.4905 7.17499 11.4905 9.08037C11.4905 10.9858 13.0351 12.5304 14.9405 12.5304C16.8459 12.5304 18.3905 10.9858 18.3905 9.08037C18.3905 7.17499 16.8459 5.63037 14.9405 5.63037ZM9.99048 9.08037C9.99048 6.34656 12.2067 4.13037 14.9405 4.13037C17.6743 4.13037 19.8905 6.34656 19.8905 9.08037C19.8905 11.8142 17.6743 14.0304 14.9405 14.0304C12.2067 14.0304 9.99048 11.8142 9.99048 9.08037Z" fill="black"/>
</svg>

<svg xmlns="http://www.w3.org/2000/svg" fill="none" viewBox="0 0 24 24">
  <path fill="#000" fill-rule="evenodd" d="M11.21 8.995a.75.75 0 0 1 .115 1.055l-5.688 7.085a.239.239 0 0 0-.026.154.36.36 0 0 0 .03.111.179.179 0 0 0 .03.05l.853.853a.474.474 0 0 0 .422.032l7.025-5.64a.75.75 0 0 1 .939 1.17l-7.163 5.75-.071.036c-.617.309-1.427.323-2.086-.17l-.042-.033-.938-.937a1.778 1.778 0 0 1-.49-1.065 1.72 1.72 0 0 1 .32-1.216l.008-.01 5.708-7.11a.75.75 0 0 1 1.054-.114Z" clip-rule="evenodd"/>
  <path fill="#000" fill-rule="evenodd" d="M14.94 5.63a3.45 3.45 0 1 0 0 6.9 3.45 3.45 0 0 0 0-6.9ZM9.99 9.08a4.95 4.95 0 1 1 9.9 0 4.95 4.95 0 0 1-9.9 0Z" clip-rule="evenodd"/>
</svg>
